src/images/partner3.svg

<svg fill="none" height="44" viewBox="0 0 185 44" width="185" xmlns="http://www.w3.org/2000/svg" xmlns:xlink="http://www.w3.org/1999/xlink"><mask id="a" height="14" width="8" x="177" y="15"><path clip-rule="evenodd" d="m177.703 15.5029h6.828v13.2975h-6.828z" fill="#fff" fill-rule="evenodd"/></mask><g clip-rule="evenodd" fill="#000" fill-rule="evenodd"><path d="m24.4794 15.1201h-6.12v6.48h6.12c1.7894 0 3.24-1.4506 3.24-3.24s-1.4506-3.24-3.24-3.24z"/><path d="m24.48 25.92h-6.12v6.48h-4.32v-21.6h10.44c4.1753 0 7.56 3.3847 7.56 7.56s-3.3847 7.56-7.56 7.56zm-2.88-25.92c-11.92932 0-21.6 9.67068-21.6 21.6 0 11.9293 9.67068 21.6 21.6 21.6 11.9293 0 21.6-9.6707 21.6-21.6 0-11.92932-9.6707-21.6-21.6-21.6z"/><path d="m65.8918 18.9602c0-1.188-.9135-1.9089-2.0998-1.9089h-3.1808v3.7963h3.1808c1.1863 0 2.0998-.721 2.0998-1.8874zm-8.2922 9.8402v-14.4h6.6155c3.0755 0 4.7504 2.0783 4.7504 4.5598 0 2.4598-1.6956 4.5379-4.7504 4.5379h-3.6039v5.3023z"/><path d="m70.7988 28.8v-10.4983h2.6923v1.3789c.7425-.891 1.9944-1.6327 3.267-1.6327v2.629c-.1917-.0423-.4248-.063-.7425-.063-.891 0-2.079.5085-2.5245 1.1666v7.0195z"/><path d="m85.8158 23.4131c0-1.5905-.9342-2.9693-2.63-2.9693-1.6767 0-2.6091 1.3788-2.6091 2.9693 0 1.6119.9324 2.99 2.6091 2.99 1.6958 0 2.63-1.3781 2.63-2.99zm-8.0385 0c0-2.9054 2.036-5.3652 5.4085-5.3652 3.3932 0 5.4292 2.4598 5.4292 5.3652s-2.036 5.3869-5.4292 5.3869c-3.3725 0-5.4085-2.4815-5.4085-5.3869z"/><path d="m97.6787 25.2371v-3.6263c-.4457-.6787-1.4213-1.1665-2.3123-1.1665-1.5471 0-2.6075 1.2087-2.6075 2.9692 0 1.7813 1.0604 2.99 2.6075 2.99.891 0 1.8666-.4878 2.3123-1.1664zm0 3.5633v-1.5698c-.8064 1.0179-1.9082 1.5698-3.1603 1.5698-2.5659 0-4.5379-1.9514-4.5379-5.3869 0-3.3292 1.9306-5.3652 4.5379-5.3652 1.2089 0 2.3539.5085 3.1603 1.5689v-5.2168h2.7143v14.4z"/><path d="m109.985 28.8001v-1.5482c-.7.7634-1.929 1.5482-3.604 1.5482-2.249 0-3.309-1.2303-3.309-3.224v-7.2743h2.692v6.2139c0 1.4213.743 1.8877 1.888 1.8877 1.039 0 1.866-.5726 2.333-1.1666v-6.935h2.694v10.4983z"/><path d="m114.701 23.4131c0-3.1385 2.29-5.3652 5.429-5.3652 2.1 0 3.373.9117 4.051 1.8451l-1.761 1.6533c-.487-.7209-1.229-1.1025-2.162-1.1025-1.634 0-2.778 1.188-2.778 2.9693s1.144 2.99 2.778 2.99c.933 0 1.675-.4239 2.162-1.1243l1.761 1.6546c-.678.9331-1.951 1.8666-4.051 1.8666-3.139 0-5.429-2.2268-5.429-5.3869z"/><path d="m126.497 25.9796v-5.3229h-1.696v-2.3546h1.696v-2.7992h2.693v2.7992h2.078v2.3546h-2.078v4.602c0 .657.339 1.1449.933 1.1449.402 0 .786-.1486.932-.3178l.574 2.0567c-.403.3609-1.124.6579-2.249.6579-1.887 0-2.883-.9756-2.883-2.8208z"/><path d="m148.519 28.8004v-6.214h-6.681v6.214h-3.01v-14.4h3.01v5.5561h6.681v-5.5561h3.032v14.4z"/><path d="m161.19 28.8001v-1.5482c-.7.7634-1.929 1.5482-3.604 1.5482-2.248 0-3.309-1.2303-3.309-3.224v-7.2743h2.692v6.2139c0 1.4213.743 1.8877 1.888 1.8877 1.039 0 1.867-.5726 2.333-1.1666v-6.935h2.694v10.4983z"/><path d="m173.475 28.8v-6.4471c0-1.4213-.741-1.9091-1.887-1.9091-1.061 0-1.866.594-2.333 1.188v7.1682h-2.693v-10.4983h2.693v1.315c.657-.7632 1.93-1.5688 3.584-1.5688 2.269 0 3.35 1.2718 3.35 3.2655v7.4866z"/></g><g mask="url(#a)"><path clip-rule="evenodd" d="m179.399 25.9796v-5.3229h-1.696v-2.3546h1.696v-2.7992h2.694v2.7992h2.077v2.3546h-2.077v4.602c0 .657.338 1.1449.932 1.1449.403 0 .786-.1486.935-.3178l.571 2.0567c-.402.3609-1.124.6579-2.248.6579-1.888 0-2.884-.9756-2.884-2.8208z" fill="#000" fill-rule="evenodd"/></g></svg>

<svg width="185" height="44" viewBox="0 0 185 44" fill="none" xmlns="http://www.w3.org/2000/svg">
<path fill-rule="evenodd" clip-rule="evenodd" d="M24.4794 15.1201H18.3594V21.6001H24.4794C26.2688 21.6001 27.7194 20.1495 27.7194 18.3601C27.7194 16.5707 26.2688 15.1201 24.4794 15.1201Z" fill="black"/>
<path fill-rule="evenodd" clip-rule="evenodd" d="M24.48 25.92H18.36V32.4H14.04V10.8H24.48C28.6553 10.8 32.04 14.1847 32.04 18.36C32.04 22.5353 28.6553 25.92 24.48 25.92ZM21.6 0C9.67068 0 0 9.67068 0 21.6C0 33.5293 9.67068 43.2 21.6 43.2C33.5293 43.2 43.2 33.5293 43.2 21.6C43.2 9.67068 33.5293 0 21.6 0Z" fill="black"/>
<path fill-rule="evenodd" clip-rule="evenodd" d="M65.8918 18.9602C65.8918 17.7722 64.9783 17.0513 63.792 17.0513H60.6112V20.8476H63.792C64.9783 20.8476 65.8918 20.1266 65.8918 18.9602ZM57.5996 28.8004V14.4004H64.2151C67.2906 14.4004 68.9655 16.4787 68.9655 18.9602C68.9655 21.42 67.2699 23.4981 64.2151 23.4981H60.6112V28.8004H57.5996Z" fill="black"/>
<path fill-rule="evenodd" clip-rule="evenodd" d="M70.7988 28.8V18.3017H73.4911V19.6806C74.2336 18.7896 75.4855 18.0479 76.7581 18.0479V20.6769C76.5664 20.6346 76.3333 20.6139 76.0156 20.6139C75.1246 20.6139 73.9366 21.1224 73.4911 21.7805V28.8H70.7988Z" fill="black"/>
<path fill-rule="evenodd" clip-rule="evenodd" d="M85.8158 23.4131C85.8158 21.8226 84.8816 20.4438 83.1858 20.4438C81.5091 20.4438 80.5767 21.8226 80.5767 23.4131C80.5767 25.025 81.5091 26.4031 83.1858 26.4031C84.8816 26.4031 85.8158 25.025 85.8158 23.4131ZM77.7773 23.4131C77.7773 20.5077 79.8133 18.0479 83.1858 18.0479C86.579 18.0479 88.615 20.5077 88.615 23.4131C88.615 26.3185 86.579 28.8 83.1858 28.8C79.8133 28.8 77.7773 26.3185 77.7773 23.4131Z" fill="black"/>
<path fill-rule="evenodd" clip-rule="evenodd" d="M97.6787 25.2371V21.6108C97.233 20.9321 96.2574 20.4443 95.3664 20.4443C93.8193 20.4443 92.7589 21.653 92.7589 23.4135C92.7589 25.1948 93.8193 26.4035 95.3664 26.4035C96.2574 26.4035 97.233 25.9157 97.6787 25.2371ZM97.6787 28.8004V27.2306C96.8723 28.2485 95.7705 28.8004 94.5184 28.8004C91.9525 28.8004 89.9805 26.849 89.9805 23.4135C89.9805 20.0843 91.9111 18.0483 94.5184 18.0483C95.7273 18.0483 96.8723 18.5568 97.6787 19.6172V14.4004H100.393V28.8004H97.6787Z" fill="black"/>
<path fill-rule="evenodd" clip-rule="evenodd" d="M109.985 28.8001V27.2519C109.285 28.0153 108.056 28.8001 106.381 28.8001C104.132 28.8001 103.072 27.5698 103.072 25.5761V18.3018H105.764V24.5157C105.764 25.937 106.507 26.4034 107.652 26.4034C108.691 26.4034 109.518 25.8308 109.985 25.2368V18.3018H112.679V28.8001H109.985Z" fill="black"/>
<path fill-rule="evenodd" clip-rule="evenodd" d="M114.701 23.4131C114.701 20.2746 116.991 18.0479 120.13 18.0479C122.23 18.0479 123.503 18.9596 124.181 19.893L122.42 21.5463C121.933 20.8254 121.191 20.4438 120.258 20.4438C118.624 20.4438 117.48 21.6318 117.48 23.4131C117.48 25.1944 118.624 26.4031 120.258 26.4031C121.191 26.4031 121.933 25.9792 122.42 25.2788L124.181 26.9334C123.503 27.8665 122.23 28.8 120.13 28.8C116.991 28.8 114.701 26.5732 114.701 23.4131Z" fill="black"/>
<path fill-rule="evenodd" clip-rule="evenodd" d="M126.497 25.9796V20.6567H124.801V18.3021H126.497V15.5029H129.19V18.3021H131.268V20.6567H129.19V25.2587C129.19 25.9157 129.529 26.4036 130.123 26.4036C130.525 26.4036 130.909 26.255 131.055 26.0858L131.629 28.1425C131.226 28.5034 130.505 28.8004 129.38 28.8004C127.493 28.8004 126.497 27.8248 126.497 25.9796Z" fill="black"/>
<path fill-rule="evenodd" clip-rule="evenodd" d="M148.519 28.8004V22.5864H141.838V28.8004H138.828V14.4004H141.838V19.9565H148.519V14.4004H151.551V28.8004H148.519Z" fill="black"/>
<path fill-rule="evenodd" clip-rule="evenodd" d="M161.19 28.8001V27.2519C160.49 28.0153 159.261 28.8001 157.586 28.8001C155.338 28.8001 154.277 27.5698 154.277 25.5761V18.3018H156.969V24.5157C156.969 25.937 157.712 26.4034 158.857 26.4034C159.896 26.4034 160.724 25.8308 161.19 25.2368V18.3018H163.884V28.8001H161.19Z" fill="black"/>
<path fill-rule="evenodd" clip-rule="evenodd" d="M173.475 28.8V22.3529C173.475 20.9316 172.734 20.4438 171.588 20.4438C170.527 20.4438 169.722 21.0378 169.255 21.6318V28.8H166.562V18.3017H169.255V19.6167C169.912 18.8535 171.185 18.0479 172.839 18.0479C175.108 18.0479 176.189 19.3197 176.189 21.3134V28.8H173.475Z" fill="black"/>
<mask id="mask0" mask-type="alpha" maskUnits="userSpaceOnUse" x="177" y="15" width="8" height="14">
<path fill-rule="evenodd" clip-rule="evenodd" d="M177.703 15.5029H184.531V28.8004H177.703V15.5029Z" fill="white"/>
</mask>
<g mask="url(#mask0)">
<path fill-rule="evenodd" clip-rule="evenodd" d="M179.399 25.9796V20.6567H177.703V18.3021H179.399V15.5029H182.093V18.3021H184.17V20.6567H182.093V25.2587C182.093 25.9157 182.431 26.4036 183.025 26.4036C183.428 26.4036 183.811 26.255 183.96 26.0858L184.531 28.1425C184.129 28.5034 183.407 28.8004 182.283 28.8004C180.395 28.8004 179.399 27.8248 179.399 25.9796Z" fill="black"/>
</g>
</svg>
